X:1
T:Miserere mei - Lotti
T:James Gibb editions
T:#
%%score [ 1 2 3 4 ]
L:1/8
Q:1/4=108
M:4/4
K:F
V:1 treble nm="S" snm="S"
V:2 treble nm="A" snm="A"
V:3 treble-8 nm="T" snm="T"
V:4 bass nm="B" snm="B"
V:1
"^Miserere mei""^Antonio Lotti\n(1665-1740)" z8 | z8 | z8 | z8 |!p! D4 D4 | !>!B8 | A8 | %7
w: ||||Mi- se-|re-|re|
 G4- G2 G2 | F8 |[M:4/4] !fermata!E8 || z2 A2 A2 A2 | !>!B4 B4 | z2 A2 A2 A2 | !>!^G3 G G4 | %14
w: me\- * i,|De-|us,|se cun- dum|ma- gnam|mi se- ri-|cor- di- am,|
 z2 =G2 G2 G2 | !>!F3 F F4 | E8 | F8 | z8 | z8 | z4"^cresc." A3 =B | c3 d e2 !>!c2- | %22
w: mi- se- ri-|cor- di- am|tu-|am.|||Mi- se-|ra- ti- o- num|
 c2 (=BA ^G2) (!>!A2- | A2 ^G2) A2!f! c2- | c2 !>!A4 A2 | !>!B3 B B2 A2 |!pp! G4 !fermata!A4 || %27
w: * tu\- * * a\-|* * rum de\-|* le i-|ni- qui- ta- tem|me- am.|
 z8 | z8 | z8 | z4 z2!p! G2 | d2 d2 =B2 B2 | c2 c2"^cresc." (A3 =B | cG !>!c4) =B2 | %34
w: |||Et|a pec- ca- to|me- o mun\- *|* * * da|
 c2!mf! !>!c4 c2 | c2 c2 c2 c2 | d2 d2 c2 c2 | =B2 Bd B4 | A2 !>!A4 =B2 | c2 A2 =B4 | A4 A2 c2 | %41
w: me. Quo- ni-|am i- ni- qui-|ta- tem me- am|e- go co- gno-|sco, et pec-|ca- tum me-|um con- tra|
 !>!d3 c (=B2 AG | ^F2 !>!G4 F2) | G8 | z8 | z8 | z8 | c2 c2 B2 B2 | A2 d2 c2 c2 | B2 BA G2 G2 | %50
w: me est sem\- * *||per.||||Ut ju- sti- fi-|ce- ris in ser-|mo- ni- bus tu- is,|
 z2 F2 A2 A2 | z4 z2 G2 | A2 c2 (B2 A2) | G4 z2 F2 | G2 B2 (!>!A2 G2- | GF !>!F4 E2) | %56
w: et vin- cas,|cum|ju- di- ca\- *|ris, cum|ju- di- ca- *||
 F2!pp! !>!c4 c2 | d2 d2 cccc | !>!d3 d d2 B2 | B2 B2 A2 !>!c2- | c2 d4 !>!B2- | B2 c2 A2 !>!A2- | %62
w: ris. Ec- ce|e- nim in i- ni- qui-|ta- ti- bus con-|ce- ptus sum, et|* in pec\-|* ca- tis, et|
 A2 !>!B4 !>!G2- | G2 !>!A4 B!mf!B | !>!G3 A B2 BB | (B2 A2) B4 | B3 B c2 c2 | A2 A2 B2 B2 | %68
w: * in pec\-|* ca- tis con-|ce- pit me ma- ter|me\- * a.|Ec- ce e- nim|ve- ri- ta- tem|
 c2 c2 d4 | c6 c2 |"^cresc." c3 c c2 c2 | B4 A4 | z8 | d3 c B2 AG | ^F4 G4 | z8 | z2 c2 d2 =B2 | %77
w: di- le- xi-|sti, in-|cer- ta et oc-|cul- ta||sa- pi- en- * ti­ae|tu- ae||ma- ni- fe-|
 c2 G2 z2!f! d2 | _e2 c2 d2 =B2 | c4 G4 | z4 z2 c2 | d2 =B2 c2 A2 | (=B2 c4 B2) | c8 | z8 | z8 | %86
w: sta- sti, ma-|ni- fe- sta- sti|mi- hi,|ma-|ni- fe- sta- sti|mi\- * *|hi.|||
 z8 | z8 | z4 z2!p! c2 |"^cresc." A2 A2 _B2 B2 | c2 c2 !>!d3 c | B2 A2 G4 | A2!mf! A2 A2 AA | %93
w: ||La-|va- bis me, et|su- per ni- vem|de- al- ba-|bor. Au- di tu- i|
 c2 c2 B2 B2 | (A2 =B^c dcde | ^c2) cc c2 c2 | !>!d3 d ^c4 | z2!f! e2 f2 e2 | d2 ^c2 d2 d2 | %99
w: me- o da- bis|gau\- * * * * * *|* di- um et lae-|ti- ti- am,|et e- xul-|ta- bunt, e- xul-|
 ^c2 c2 z4 |!pp! A4 G2 G2 | !>!G4 F4 | E8 | !fermata!^F8 || z8 | z8 | z8 | z8 | z4 z2!f! G2 | %109
w: ta- bunt|os- sa hu-|mi- li-|a-|ta.|||||Et|
 d2 c=B c3 d | e2 d2 c2 c2 | (=B4 A4 | G4 ^F4) | E4 =B4 | c4 c4 | =B2 B2 c2 d2 | e4 d2 d2 | %117
w: om- nes i- ni- qui|ta- tes me- as|de\- *||le Cor|mun- dum|cre- a in me,|De- us, et|
 c2 cc c2 c2 | A3 A A4 | z2 !>!d4 d2 | d4 c2 c2 | (=B2 c2 B4) | ^c4 c3 c | d2 dd _B3 B | c2 cc A4 | %125
w: spi- * ri­tum re- ctum|in- no- va|in vis-|ce- ri- bus|me\- * *|is. Ne pro-|ji- ci- as me a|fa- ci- e tu-|
 G8 | z8 | z2 c2 A2 AB | (c2 A2 !>!F3 G | A2) =B2 c4 | c4 z2 f2 | (ecde f3) f | c2 c2 (c3 B | %133
w: a,||et spi- ri- tum|san\- * * *|* ctum tu-|um ne|au\- * * * * fe-|ras, ne au\- *|
 ABcA defd | cdc)B A2 A2 | G3 G G3 G | A8 | z8 | d2 d2 ^c2 cc | d3 d A4 | d2 d2 ^c2 c2 | d4 A4 | %142
w: |* * * fe- ras, ne|au- fe- ras a|me.||Red- de mi- hi lae-|ti- ti- am|sa- lu- ta- ris|tu- i,|
 z8 | z4 z2 c2 | =B2 BA B2 G2 | d2 !>!d4 d2 | c2 !>!c4 c2 | (=B2 !>!c4) B2 | c8 || z8 | z8 | z8 | %152
w: |et|spi- ri- tu prin- ci-|pa- li con-|fir- ma, con-|fir\- * ma|me.||||
 z8 | z8 | z8 | z8 | z8 | z8 | z8 | z8 | z8 | z8 |!pp! F4 F2 F2 | B4 B2 B2 | A4 A2 A2 | d8 | c8 | %167
w: ||||||||||Li- be- ra|me de san-|gui- ni- bus,|De-|us,|
 =B4 B4 | z2 =B2 c2 c2 | =B4 B4 | z2!mf! =B2 c2 d2 | e2 =B2 c2 d2 | e4 c2 c2 | c4 _B2 B2 | A4 B4 | %175
w: De- us|sa- lu- tis|me- ae,|et e- xul-|ta- bit lin- gua|me- a ju-|sti ti- am|tu- am.|
!pp! B3 B B4 | d4 d2 d2 | e4 d2 d2 | ^c3 c c4 | z2!mf! d4 d2 | B2 BB B2 B2 | A2 A2 !>!A4- | %182
w: Do- mi- ne,|la- bi- a|me- a a-|pe- ri- es,|et os|me- um an- nun- ti-|a- bit lau\-|
 A2 B2 A4 | A8 |!p! B3 B B2 B2 | c2 c2 c2 c2 | B2 B2 B3 B | A2 A2 A2 A2 | B4 c4 | d4 z4 | %190
w: * dem tu-|am.|Quo- ni- am si|vo- lu- is- ses|sa- cri- fi- ci-|um, de- dis- sem|u- ti-|que,|
 B3 B B2!>(! !>!B2-!>)! | B2 B2 d2 (Bc) | (d2 B2 A3) A | =B8 |!mf! c4 c4 | d3 d d4 | d8 | ^c8 | %198
w: ho- lo- cau- stis|* non de- le\- *|cta\- * * be-|ris.|Sa- cri-|fi- ci- um|De-|o|
 c3 c c4 | z2 =B2 B2 B2 | A8 | G8 |!p! _B6 B2 | _A4 A4 | _A2 A2 A2 A2 | G4 G4 | G6 G2 | _A4 G4 | %208
w: spi- ri- tus|con- tri- bu-|la-|tus,|cor con-|tri- tum|et hu- mi- li-|a- tum|De- us|non de-|
 G6 G2 | G8 | z8 | z8 | z8 | z8 | z2!p! c2 c2 c2- | c2 A2 (B2 c2 | A2 B2 G3) G | A3 A d3 d | %218
w: spi- ci-|es.|||||Be- ni- gne|* fac, Do\- *|* * * mi-|ne, in bo- na|
 d2 d2 cccc | (c2 =B2) c4 | c3 c c2 c2 | _B2 B2 d4 | B2 B2 A3 A | B6 B2 | B2 d2 B2 B2 | %225
w: vo- lun- ta- te tu- a|Si\- * on,|ut ae- di- fi-|cen- tur mu-|ri Je- ru- sa-|lem. Tunc|ac- ce- pta- bis|
 B2 d2 c3 c | A2 A2 d3 d | G6 c2 | c4 c4 | B2 BB B2 B2 | A8 | !fermata!A8 | %232
w: sa- cri- fi- ci-|um ju- sti- ti-|ae, o-|bla- ti-|o- nes et ho- lo-|cau-|sta;|
"^pìu mosso"[Q:1/4=118] z8 | z8 | z8 | z8 |!f! A4 A4 | %237
w: ||||tunc im-|
[Q:1/4=118][Q:1/4=118][Q:1/4=118][Q:1/4=118] B4 B4 | z2 A2 A2 A2 | (FEDE FGAB | c6) (BA) | %241
w: po- nent|su- per al-|ta\- * * * * * * *|* re *|
 B4 A2 (G2- | G2 F2 E3) E | D2 d2 d2 d2 | (cBAB cdef | d4) d4 | z2 A2 A2 A2 | (GFEF GABc | %248
w: tu- um vi\-|* * * tu-|los, su- per al-|ta\- * * * * * * *|* re,|su- per al-|ta\- * * * * * * *|
 d3) d c2 A2 | G3 G A4 | z2 A2 A2 A2 | G2 E2 z4 | z2 B2 B2 B2 | A2 F2 z4 | z2 c2 c2 c2 | %255
w: * re tu- um|vi- tu- los,|su- per al-|ta- re,|su- per- al-|ta- re,|su- per al-|
 (BAGA Bcde | f6) (ed) | ^c2 d2 d2 c2 | d4 z4 | z2 d2 d2 d2 | B2 g2 g2 f2 | %261
w: ta\- * * * * * * *|* re *|tu- um vi- tu-|los,|su- per al-|ta- re vi- tu-|
 f2[Q:1/4=118] _e2[Q:1/4=117] e2[Q:1/4=116] d2 |[Q:1/4=114] d4[Q:1/4=112] c4 | %263
w: los, su- per al-|ta- re|
[Q:1/4=110] (c4[Q:1/4=109] B2[Q:1/4=108] c2 |[Q:1/4=106] d6)[Q:1/4=104] d2 | %265
w: vi\- * *|* tu-|
[Q:1/4=102] !fermata!d8 |] %266
w: los.|
V:2
 z8 | z8 | z8 |!p! D4 D4 | (A8- | !>!A2 G^F) (G4- | !>!G2 =FE) (F4- | F2 ED) (E4- | %8
w: |||Mi- se|re\-|* * * re|* * * me\-|* * * i,|
 !>!E2 D^C) (D4- |[M:4/4] !>!D2 ^C=B,) !fermata!C4 || z2 E2 F2 F2 | !>!E4 E4 | z2 A,2 D2 D2 | %13
w: * * * De\-|* * * us,|se- cun- dum|ma- gnam|mi- se- ri-|
 !>!D3 D D4 | z2 ^C2 C2 E2 | !>!E2 D2 (D4- | D2 ^C=B,) C4 | D8 | z2 !>!A4 A2 | G3 F G2 E2 | %20
w: cor- di- am,|mi- se- ri-|cor- di- am|* * * tu-|am.|Et se-|cun- dum mul- ti-|
 F3 F F4 |"^cresc." E3 E E2 A2 | F2 FF E4- | E4 E2!f! E2- | E2 !>!F4 F2 | !>!D3 D G2 F2 | %26
w: tu- di- nem|mi- se- ra- ti-|o- num tu- a\-|* rum de\-|* le i-|ni- qui- ta- tem|
!pp! (F2 E2) !fermata!F4 || z8 | z8 | z8 | z8 | z2!p! D2 G2 G2 | E2 E2"^cresc." F2 F2 | %33
w: me\- * am.|||||Et a pec-|ca- to me- o|
 E2 E2 D3 D | C2!mf! !>!G4 G2 | G2 G2 G2 G2 | G2 G2 G2 ^F2 | G2 GA G4 | ^F4 D4 | E2 ^F2 D2 G2 | %40
w: mun- da, mun- da|me. Quo- ni-|am i- ni- qui-|ta- tem me­ am|e- go co- gno-|sco, et|pec- ca- tum me-|
 ^F4 E3 E | A4 G2 (E2 | D8 | D4 z4 | z8 | z8 | G2 G2 F2 F2 | E2 A2 G2 G2 | F2 FF E3 F | %49
w: um con- tra|me est sem\-||per.|||Ut ju- sti- fi-|ce- ris in ser-|mo- ni- bus tu\- *|
 G3 F E2) E2 | z2 C2 F2 F2 | z8 | z2 C2 D2 F2 | (E4 D4 | C2 F4 ED | C8) | C2!pp! !>!F4 F2 | %57
w: * * * is,|et vin- cas,||cum ju- di-|ca\- *|||ris. Ec- ce|
 F2 F2 FFFA | !>!F3 F F2 F2 | G2 F2 F4 | F4 G4 | _E4 F4 | D2 D2 _E4 | C4 F2 F!mf!F | %64
w: e- nim in i- ni- qui-|ta- ti- bus con-|ce- ptus sum,|et in|pec- ca-|tis, et in|pec- ca- tis con-|
 !>!_E3 E F2 FF | F4 F4 | F3 F F2 F2 | F2 F2 F2 F2 | F2 F2 F4 | F6 F2 |"^cresc." A3 A A2 A2 | %71
w: ce- pit me ma- ter|me- a.|Ec- ce e- nim|ve- ri- ta- tem|di- le- xi-|sti, in-|cer- ta et oc-|
 G4 ^F4 | ^F3 F G2 AB | A4 G4 | z8 | z4 G3 F | _E2 DC (=B,2 F2) | G2!f! _E2 F2 G2 | G2 _E2 D4 | %79
w: cul- ta|sa- pi- en- ti- ae|tu- ae,||sa- pi-|en- ti- ae tu\- *|ae ma- ni- fe-|sta- sti mi-|
 C4 z2 G2 | _A2 F2 (G2 _E2 | _A4 G2 F2- | F2 _E2 D4 | E8 | z8 | z8 | z8 | z8 | %88
w: hi, ma-|ni- fe- sta\- *||* sti mi-|hi.|||||
 z2!p! F2"^cresc." E2 E2 | F2 F2 G2 G2 | !>!A3 G F3 F | G2 !>!F4 E2) | F2!mf! F2 F2 FF | %93
w: La- va- bis|me, et su- per|ni- vem de- al-|ba\- * *|bor. Au- di tu- i|
 G2 G2 D2 D2 | (F3 G AGAB | A2) AA A2 A2 | !>!A2 G2 A4 | z2!f! A2 A2 A2 | A2 A2 A2 A2 | A2 A2 z4 | %100
w: me- o da- bis|gau\- * * * * *|* di- um et lae-|ti- ti- am,|et e- xul-|ta- bunt, e- xul-|ta- bunt|
!pp! F4 D2 (^CD) | !>!E6 !>!D2- | D2 (^C=B, C4) | !fermata!D8 || z8 | z8 | z8 | z8 | %108
w: os- sa hu\- *|mi- li\-|* a\- * *|ta.|||||
 z2!f! D2 G2 ^FE | ^F3 G A2 F2 | (GA =B4) !>!A2- | A2 (!>!G4 !>!^F2- | F2 E4 ^D2) | !>!E4 G4 | %114
w: Et o- mnes i-|ni- qui- ta- tes|me\- * * as|* de\- *||le. Cor|
 G4 G4 | G2 G2 G2 G2 | G4 G2 G2 | G2 GG G2 G2 | F3 F F4 | z2 !>!F4 F2 | E4 E2 E2 | E8 | E4 E3 E | %123
w: mun- dum|cre- a in me,|De- us, et|spi- * ri­tum re- ctum|in- no- va|in vis-|ce- ri- bus|me-|is. Ne pro-|
 F2 FF D3 D | G2 GG F4 | E2 G2 E2 EF | (G2 E2 C3) D | E2 C2 z4 | z8 | z2 F2 (ECEF | GEFG A3) A | %131
w: ji- ci- as me a|fa- ci- e tu-|a, et spi- ri- tum|san\- * * ctum|tu- um||ne au\- * * *|* * * * * fe-|
 G2 G2 A4 | z2 A2 (GEFG | F3) F F4 | z2 F2 (FGAF | E2 F2 F2 E2 | F8 | F2 F2 E2 EE | F3 F E4 | %139
w: ras a me,|ne au\- * * *|* fe- ras,|ne au\- * * *|* fe- ras a|me.|Red- de mi- hi lae-|ti- ti- am|
 F2 F2 E2 E2 | F4 E2 E2 | A2 AG A2 F2 | D2 D2 z2 G2 | E2 ED E2 C2 | G4 G2 G2 | A2 AG A2 F2 | %146
w: sa- lu- ta- ris|tu- i, et|spi- ri- tu prin- ci-|pa- li, et|spi- ri- tu prin- ci-|pa- li, et|spi- ri- tu prin- ci-|
 E2 !>!G4 A2 | !>!G6 G2 | G8 || z8 | z8 | z8 | z8 | z8 | z8 | z8 | z8 | z8 | z8 | z8 | z8 | z8 | %162
w: pa- li con-|fir- ma|me.||||||||||||||
!pp! C4 C2 C2 | F4 F2 F2 | F4 F2 F2 | F4 E4) | F8 | F4 F4 | z2 F2 E2 E2 | D4 D4 | z2!mf! G2 G2 G2 | %171
w: Li- be- ra|me de san-|gui- ni- bus,|De\- *|us,|De- us|sa- lu- tis|me- ae,|et e- xul-|
 G2 G2 G2 G2 | G4 A2 A2 | A4 G2 G2 | (G2 ^F2) G4 |!pp! G3 G G4 | A4 A2 A2 | A4 A2 A2 | A3 A A4 | %179
w: ta- bit lin- gua|me- a ju|sti- ti- am|tu\- * am.|Do- mi- ne,|la- bi- a|me- a a-|pe- ri- es,|
 z2!mf! A4 A2 | G2 GG G2 G2 | G2 G2 !>!F4- | F2 G2 E4 | F8 |!p! F3 F F2 F2 | F2 F2 F2 F2 | %186
w: et os|me- um an- nun- ti-|a- bit lau\-|* dem tu-|am.|Quo- ni- am si|vo- lu- is- ses|
 F2 F2 F3 F | _E2 E2 E2 E2 | D4 G4 | ^F4 z4 | G3 G G2 G2- | G2 G2 A2 G2 | (A2 !>!G4) ^F2 | G8 | %194
w: sa- cri- fi- ci-|um, de- dis- sem|u- ti-|que,|ho- lo- cau- stis|* non de- le-|cta\- * be-|ris.|
!mf! G4 _A4 | _A3 A G4 | G8 | G8 | ^F3 F F4 | z2 F2 F2 F2 | _E8 | D8 |!p! G6 G2 | G4 F4 | %204
w: Sa- cri-|fi- ci- um|De-|o|spi- ri- tus|con- tri- bu-|la-|tus,|cor con-|tri- tum|
 F2 F2 F2 F2 | F4 F4 | _E6 E2 | F4 _E4 | D6 D2 | E8 | z8 | z8 | z4 z2!p! F2 | F2 !>!F4 E2 | %214
w: et hu- mi- li-|a- tum|De- us|non de-|spi- ci-|es.|||Be-|ni- gne fac,|
 (F2 G2 E2 FG | A4 G4 | F2 D2 E3) E | C3 F F3 F | F2 F2 FFAA | G4 G4 | G3 G A2 A2 | F2 F2 A4 | %222
w: Do\- * * * *||* * * mi-|ne, in bo- na|vo- lun- ta- te tu- a|Si- on,|ut ae- di- fi-|cen- tur mu-|
 G2 G2 G2 ^F2 | G6 G2 | G2 B2 G2 G2 | G2 G2 G3 G | F2 F2 F3 F | E6 G2 | A4 A4 | G2 GG G2 G2 | %230
w: ri Je- ru- sa-|lem. Tunc|ac- ce- pta- bis|sa- cri- fi- ci-|um ju- sti- ti-|ae, o-|bla- ti-|o- nes et ho- lo-|
 (G4 F4) | !fermata!E8 | z8 | z8 | z8 | z8 | z8 |!f! D4 D4 | F4 F4 | z2 D2 D2 D2 | (CB,A,B, CDEF | %241
w: cau\- *|sta;||||||tunc im-|po- nent|su- per al-|ta\- * * * * * * *|
 G2) G2 F2 (ED) | (^C2 !>!D4) C2 | D4 z4 | A4 A4 | B4 B4 | z2 F2 F2 F2 | (EDCD EFGA | B3) A G2 F2 | %249
w: * re tu- um *|vi\- * tu-|los,|tunc im-|po- nent|su- per al-|ta\- * * * * * * *|* re tu- um|
 F2 E2 F4 | z2 F2 F2 F2 | E2 C2 z4 | z2 G2 G2 G2 | F2 D2 z4 | z8 | z2 G2 G2 G2 | F2 A2 A2 G2 | %257
w: vi- tu- los,|su per al-|ta- re,|su- per- al-|ta- re,||su- per al-|ta- re tu- um|
 (G2 F2 E3) E | ^F2 F2 F2 F2 | G2 GG A2 A2 | G2 B2 B2 B2 | B2 B2 B2 B2 | G4 G4 | (^F4 G4- | %264
w: vi\- * * tu-|los, su- per al-|ta- re, su- per al-|ta- re vi- tu-|los, su- per al-|ta- re|vi\- *|
 G4) ^F4 | !fermata!G8 |] %266
w: * tu-|los.|
V:3
 z8 |!p! D4 D4 | !>!B8 | A8 | A4 d4 | d4 e4- | e4 d4- | d4 A4 | (A4 ^G4) | %9
w: |Mi- se-|re-|re,|mi- se-|re- re|* me-|* i,|De\- *|
[M:4/4][K:treble-8] !fermata!A8 || z2 ^c2 d2 d2 | !>!^c4 c4 | z2 d2 A2 A2 | !>!=B3 B B4 | %14
w: us;|se- cun- dum|ma- gnam|mi- se- ri-|cor- di- am,|
 z2 e2 e2 A2 | !>!A3 A A4 | A8 | A2 !>!d4 d2 | c3 B c2 A2 | =B6 ^c2 | d4"^cresc." d3 d | c6 (de) | %22
w: mi- se- ri-|cor- di­ am|tu-|am. Et se-|cun- dum mul- ti-|tu- di|nem mi- se-|ra- ti\- *|
 d6 cc | =B4 c2!f! c2- | c2 !>!d4 d2 | !>!_B3 B c2 c2 |!pp! c4 !fermata!c4 ||!p! c3 B A4 | %28
w: o- num tu-|a- rum de\-|* le i-|ni- qui- ta- tem|me- am.|Am- pli- us|
 B2 B2 G4 | A2 c2 F2 A2 | c4 _B4 | A4 =B4 | z8 | z8 | z2!mf! e4 e2 | e2 e2 e2 e2 | d2 d2 e2 c2 | %37
w: la- va me|ab i- ni qui-|ta- te|me- a.|||Quo- ni-|am i- ni- qui-|ta- tem me- am|
 d2 dd d4 | d8 | z4 G2 =B2 | d4 c3 =B | A2 !>!d4 (!>!c2- | c2 =B2 A4) | G2 !>!=B4 B2 | %44
w: e- go co- gno-|sco,|con- tra|me, con- tra|me est sem\-||per. Ti- bi|
 c2 c=B A2 Ac | =B2 A2 G2 AB | (cG !>!c4 =B2) | c4 z4 | z8 | z2 G2 c2 c2 | z2 A2 c2 f2 | %51
w: so- li pec- ca- vi, et|ma- lum co- ram te|fe- * * *|ci,||et vin- cas,|cum ju- di-|
 (e2 d2 c2 B2) | A4 z2 F2 | G2 c2 (B2 A2 | G2 F2 c3 B | A4 G4) | A2!pp! !>!A4 A2 | A2 A2 cccf | %58
w: ca\- * * *|ris. cum|ju- di- ca\- *|||ris. Ec- ce|e- nim in i- ni­ qui-|
 !>!d3 d B2 f2 | _e2 d2 c4 | z8 | z2 !>!c4 !>!d2- | d2 !>!B4 !>!c2- | c2 !>!A4!mf! d2 | %64
w: ta- ti- bus con-|ce- ptus sum.||et in|* pec- ca\-|* tis con-|
 !>!B3 c d2 dd | c4 d4 | d3 d c2 c2 | d2 d2 d2 d2 | c2 c2 B4 | A6 A2 |"^cresc." d3 d d2 d2 | %71
w: ce- pit me ma- ter|me- a.|Ec- ce e- nim|ve- ri- ta- tem|di- le- xi-|sti, in-|cer- ta et oc-|
 d4 d4 | d3 c B2 AG | ^F4 G4 | d3 c =B2 BB | c2 cc d2 d2 | G4 G2!f! d2 | _e2 c2 d2 =B2 | c4 G4 | %79
w: cul- ta|sa- pi- en- ti- ae|tu- ae|sa- pi- en- ti- ae|tu- ae ma- ni- fe-|sta- sti, ma-|ni- fe- sta- sti|mi- hi,|
 z2 c2 =B2 _e2 | (c2 d2) c2 _e2 | f2 d2 (_e2 d2- | d2 G2 G4 | G8 | c4 c2 c2 | c2 !>!c3 =BAc | %86
w: ma- ni- fe|sta\- * sti, ma-|ni- fe- sta\- *|* sti mi-|hi.|A- sper- ges|me, Do- mi- ne, hys-|
 d2 d2 !>!d3 c | Bc !>!d4 cB | A4 G4 | z8 | z8 | z8 | z2!mf! c2 c2 cc | e2 e2 d2 d2 | d3 e fedg | %95
w: so- po, et mun-|da\- * * * *|* bor.||||Au- di tu- i|me- o da- bis|gau\- * * * * *|
 e2) ee e2 e2 | !>!d3 d e4 | z2!f! ^c2 d2 c2 | f2 e2 f2 f2 | e2 e2 z4 |!pp! d4 B2 B2 | B4 A4 | A8 | %103
w: * di- um et lae|ti- ti- am,|et e- xul-|ta- bunt, e- xul-|ta- bunt|os- sa hu-|mi- li-|a-|
 !fermata!A8 ||!f! c4 =B2 (AG) | A2 A=B c4 | =B2 !>!e4 d2 | c2 c2 (=B4 | A2 !>!d4 ^c2) | d4 z4 | %110
w: ta.|A- ver- te *|fa- ci- em tu-|am a pec-|ca- tis me\-||is.|
 z8 | z8 | z8 | z4 e4 | e4 e4 | d2 d2 e2 d2 | c4 =B2 B2 | e2 ee e2 e2 | c3 c c4 | z2 !>!=B4 B2 | %120
w: |||Cor|mun- dum|cre- a in me,|De- us, et|spi- * ri­tum re- ctum|in- no- va|in vis|
 ^G4 A2 A2 | (^G2 !>!A4 G2) | A4 ^c3 c | A2 AA B3 d | c2 cc c4 | c8 | z2 c2 A2 AB | c2 A2 (F3 G) | %128
w: ce ri- bus|me\- * *|is. Ne pro-|ji- ci- as me a|fa- ci- e tu-|a,|et spi- ri- tum|san- ctum tu\- *|
 A2 c2 !>!d3 d | c2 d2 G4 | z2 e2 (cAcd | e3) d c2 A2 | (G2 A2 c4- | cBAc d3 e | f3) B c2 c2 | %135
w: um ne au- fe-|ras a me,|ne au\- * * *|* fe- ras, ne|au\- * *||* fe- ras, ne|
 c3 c c2 c2 | c8 | d2 d2 ^c2 cc | d3 d A4 | d2 d2 ^c2 c2 | d4 A4 | z4 z2 d2 | =B2 BA B2 G2 | %143
w: au fe- ras a|me.|Red- de mi- hi lae-|ti- ti- am|sa- lu- ta- ris|tu- i,|et|spi- ri- tu prin- ci-|
 c4 c2 A2 | G2 G2 G4 | z4 z2 A2 | c2 !>!c4 f2 | (f2 e4) d2 | e8 || e4 !>!e4 | e2 e2 f2 f2 | %151
w: pa- li con|fir- ma me,|con-|fir- ma, con-|fir\- * ma-|me.|Do- ce-|bo i- ni- quos|
 e2 e2 (d4 | c3 d e!>!=B e2- | e2 d2) e4 | z2 =B2 c3 B | A2 c2 (!>!d3 c) | =B3 A (G2"^cresc." B2 | %157
w: vi- as tu\-||* * as,|et im- pi-|i ad te *|con- ver- ten\- *|
 !>!c3 =B A2 c2 | d3 c =Bd e2- | edce!f! f3 e | d2 c2 =B4) | A8 |!pp! A4 A2 A2 | d4 d2 d2 | %164
w: ||||tur.|Li- be- ra|me de san-|
 c4 c2 c2 | B8 | A8 | d4 d4 | z2 d2 G2 G2 | =B4 B4 | z2!mf! d2 c2 =B2 | e2 d2 c2 =B2 | e4 e2 e2 | %173
w: gui- ni- bus,|De-|us,|De- us|sa- lu- tis|me- ae,|et e- xul-|ta- bit lin- gua|me- a ju-|
 d4 d2 d2 | d4 d4 |!pp! d3 d d4 | d4 f2 f2 | e4 f2 f2 | e3 e e4 | z2!mf! d4 d2 | d2 dd ^c2 d2 | %181
w: sti- ti- am|tu- am.|Do- mi- ne,|la- bi­a *|me- a a-|pe- ri- es,|et os|me- um an- nun- ti-|
 e2 e2 !>!d4- | d2 d2 (d2 ^c2) | d8 |!p! d3 d d2 d2 | c2 c2 c2 c2 | d2 d2 d3 d | c2 c2 c2 c2 | %188
w: a- bit lau\-|* dem tu\- *|am.|Quo- ni- am si|vo- lu- is- ses|sa- cri- fi- ci-|um, de- dis- sem|
 B4 G4 | A4 d3 d | d6 d2- | d2 d2 d2 d2 | d6 d2 | d8 |!mf! _e4 e4 | d3 d d4 | d8 | e8 | c3 c c4 | %199
w: u- ti-|que, ho- lo-|cau- stis|* non de- le-|cta- be-|ris.|Sa- cri-|fi- ci- um|De-|o|spi- ri- tus|
 z2 d2 d2 d2 | (d4 c4) | =B8 |!p! c6 c2 | c4 c4 | d2 d2 d2 d2 | d4 d4 | c6 c2 | =B4 c4 | c4 =B4 | %209
w: con- tri- bu-|la\- *|tus,|cor con-|tri- tum|et hu- mi- li-|a- tum|De- us|non de-|spi- ci-|
 c8 | z2!p! c2 c2 !>!c2- | c2 A2 (_B2 c2 | A2 B2 G2 A2- | AGA=B cG c2 | _B2 G4 AB | c4 d2 e2 | %216
w: es.|Be­ ni- gne|* fac, Do\- *|||||
 c2 B2 c3) c | A3 c d3 d | d2 B2 ccff | d4 e4 | e3 e f2 f2 | d2 d2 d4 | d2 d2 d3 d | d6 d2 | %224
w: * * * mi-|ne, in bo- na|vo- lun- ta- te tu- a|Si- on,|ut ae- di- fi-|cen- tur mu-|ri Je- ru- sa-|lem. Tunc|
 d2 B2 d2 d2 | d2 B2 c3 c | c2 c2 c2 =B2 | c6 e2 | e4 d4 | d2 dd ^c2 c2 | (e4 d4) | !fermata!^c8 | %232
w: ac- ce- pta- bis|sa- cri- fi- ci-|um ju- sti- ti-|ae, o-|bla- ti-|o- nes et ho- lo-|cau\- *|sta;|
!f! A4 A4 | B4 B4 | z2 A2 A2 A2 | (FEDE FGAB | c6) (BA) | G4 G4 | z8 | z8 | z8 | z8 | z8 | d4 d4 | %244
w: tunc im-|po- nent|su- per al-|ta\- * * * * * * *|* re *|tu- um.||||||tunc im-|
 f4 f4 | z2 B2 B2 B2 | (AGFG ABcd | e6 dc | B3) B c2 c2 | c3 c c2 c2 | c2 c2 A2 A2 | z2 e2 e2 e2 | %252
w: po- nent|su- per al-|ta\- * * * * * * *||* re tu- um|vi- tu- los, su-|per al- ta- re,|su- per al-|
 d2 B2 z4 | z2 F2 F2 F2 | (EDCD EFGA | B6) (AG) | A4 B4 | A6 A2 | A4 z4 | z2 B2 d2 d2 | %260
w: ta- re,|su- per al-|ta\- * * * * * * *|* re *|tu- um|vi- tu-|los,|su per al|
 d2 G2 B2 B2 | B4 B4 | B4 c4 | d6 (c=B) | A4 A4 | !fermata!=B8 |] %266
w: ta- re vi- tu-|los, su-|per al-|ta- re *|vi- tu-|los.|
V:4
!p! D,4 D,4 | (A,8- | !>!A,2 G,F, G,4- | !>!G,2 F,E,) F,4 | ^F,4 F,4 | G,4 E,4 | ^C,4 D,4 | %7
w: Mi- se-|re\-||* * * re,|mi- se-|re- re|me- i,|
 (=B,,4 ^C,4 | D,8) |[M:4/4] !fermata!A,,8 || z2 A,2 A,2 A,2 | !>!G,4 G,4 | z2 F,2 F,2 F,2 | %13
w: De\- *||us|se- cun- dum|ma- gnam|mi- se- ri-|
 !>!E,3 E, E,4 | z2 A,,2 A,,2 A,,2 | !>!D,3 D, D,4 | A,,8 | D,8 | z8 | z8 | %20
w: cor- di- am,|mi- se- ri-|cor- di- am|tu-|am|||
"^cresc." D,3 E, F,3 G, | (!>!A,3 =B, C2) C,2 | D,4 E,4- | E,4 A,,2!f! A,2- | A,2 !>!F,4 F,2 | %25
w: mi- se- ra- ti-|o\- * * num|tu- a\-|* rum de\-|* le i-|
 !>!G,3 F, E,2 F,2 |!pp! C,4 !fermata!F,4 || z4!p! F,3 E, | D,4 E,2 E,2 | C,4 D,2 F,2 | %30
w: ni- qui- ta- tem|me- am.|Am- pli-|us la- va|me ab i-|
 C,2 E,2 G,2 G,2 | (G,2 ^F,2) G,4 | z8 | z8 | z2!mf! C4 C2 | C2 C2 C2 C2 | =B,2 B,2 A,2 A,2 | %37
w: ni- qui- ta- te|me\- * a.|||Quo- ni-|am i- ni- qui-|ta- tem me- am|
 G,2 G,^F, G,4 | D,8 | z8 | D,2 ^F,2 !>!A,3 G, | ^F,4 G,2 C,2 | D,8 | G,4 E,4- | E,2 E,2 F,2 F,E, | %45
w: e- go co- gno-|sco,||con- tra me est|sem- per, est|sem-|per. Ti\-|* bi so- li pec-|
 D,2 D,F, E,3 D, | C,2 E,E, D,4 | C,4 z4 | z8 | z4 z2 C,2 | F,2 F,2 z2 F,2 | G,2 B,2 (A,2 G,2) | %52
w: ca- vi, et ma- lum|co- ram te fe-|ci,||et|vin- cas, cum|ju- di- ca\- *|
 F,4 z4 | z2 C,2 D,2 F,2 | (E,2 D,2 C,4 | C,8) | F,2!pp! !>!F,4 F,2 | D,2 D,2 A,A,A,A, | %58
w: ris,|cum ju- di-|ca- * *||ris. Ec- ce|e- nim in i- ni- qui-|
 !>!B,3 B, D,2 D,2 | _E,2 B,,2 F,4 | z8 | z4 !>!F,4- | F,2 !>!G,4 !>!_E,2- | E,2 !>!F,4 D,!mf!D, | %64
w: ta- ti- bus con-|ce- ptus sum,||et|* in pec\-|* ca- tis con-|
 !>!_E,3 E, D,2 B,,B,, | F,4 B,,4 | B,3 B, A,2 A,2 | F,2 F,2 B,2 B,2 | A,2 A,2 B,4 | F,6 F,2 | %70
w: ce- pit me ma- ter|me- a.|Ec- ce e- nim|ve- ri- ta- tem|di- le- xi-|sti, in-|
"^cresc." ^F,3 F, F,2 F,2 | G,4 D,4 | z8 | z4 z4 | z4 G,3 F, | _E,2 D,C, =B,,4 | C,4 z4 | z4 z4 | %78
w: cer- ta et oc-|cul- ta|||sa- pi-|en- ti- ae tu-|ae||
 z4 z2!f! G,2 | _A,2 F,2 G,2 _E,2 | F,2 D,D, _E,2 C,2 | (F,4 C,2) F,2 | G,8 | C,8 | z4 F,4 | %85
w: ma-|ni- fe- sta- sti|mi- hi, ma- ni- fe-|sta\- * sti|mi-|hi.|A-|
 F,2 F,2 F,2 F,2- | F,E,D,F, G,2 G,2 | !>!G,3 F, (E,4 | F,4 C,4 | z8 | z8 | z8 | %92
w: sper- ges me, Do\-|* mi- ne, hys- so- po,|et mun- da\-|* bor.||||
 z2!mf! F,2 F,2 F,F, | E,2 C,2 G,2 G,2 | F,3 E, D,E,F,G, | A,2) A,A, A,2 A,2 | !>!B,3 B, A,4 | %97
w: Au- di tu- i|me- o da- bis|gau\- * * * * *|* di- um et lae-|ti- ti- am,|
 z2!f! A,2 D2 A,2 | D,2 A,2 D2 D,2 | A,2 A,2 z4 |!pp! F,4 G, (F,E,D,) | !>!^C,4 D,4 | A,,8 | %103
w: et e- xul-|ta- bunt, e- xul-|ta- bunt|os- sa hu\- * *|mi- li-|a-|
 !fermata!D,8 || z4!f! G,4 | ^F,2 (E,D,) E,2 E,F, | G,4 ^F,2 =B,2- | B,2 A,2 A,2 G,2 | %108
w: ta.|A-|ver- te * fa- ci- em|tu- am a|* pec- ca- tis|
 (^F,3 E,/D,/ E,4) | D,4 z4 | z8 | z8 | z8 | z4 E,4 | C,4 E,4 | G,2 G,2 C2 =B,2 | C4 G,2 G,2 | %117
w: me\- * * *|is.||||Cor|mun- dum|cre- a in me|De- us, et|
 E,2 E,E, E,2 E,2 | F,3 F, F,4 | z2 !>!D,4 D,2 | E,4 A,,2 A,,2 | E,8 | A,,4 A,3 A, | %123
w: spi- ri- tum re- ctum|in- no- va|in vis-|ce- ri- bus|me-|is. Ne pro-|
 F,2 F,F, G,3 G, | E,2 E,E, F,4 | C,8 | z8 | z8 | z2 F,2 D,2 D,E, | F,2 D,2 C,4 | %130
w: ji- ci- as me a|fa- ci- e tu-|a,|||et spi- ri- tum|san- ctum tu-|
 C,2 C2 (A,F,A,B, | C3 B, A,2) F,2 | E,2 F,2 (E,C,D,E, | F,G,A,F, B,CDB, | A,3) G, F,2 F,2 | %135
w: um, ne au\- * * *|* * * fe-|ras, ne au\- * * *||* fe- ras, ne|
 C,3 C, C,2 C,2 | F,8 | z8 | z8 | z8 | z4 z2 A,2 | F,2 F,E, F,2 D,2 | G,4 G,4 | z8 | z4 z2 G,2 | %145
w: au- fe- ras a|me.||||Et|spi- ri- tu prin- ci-|pa- li,||et|
 F,2 F,E, F,2 D,2 | A,2 !>!E,4 F,2 | !>!G,6 G,2 | C,8 || z4 A,4 | A,4 A,2 A,2 | C2 C2 =B,2 B,2 | %152
w: spi- ri- tu prin- ci-|pa- li con-|fir- ma|me.|Do-|ce- bo i-|ni- quos vi- as|
 (A,3 F, G,4 | F,4) E,4 | z4 z2 E,2 | !>!F,3 E, D,2 F,2 | (!>!G,3 F,) E,3 D, | %157
w: tu\- * *|* as,|et|im- pi- i ad|te * con- ver-|
 (C,2"^cresc." E,2 !>!F,3 E, | D,2 F,2 !>!G,3 F, | E,G,!f! A,3 G,F,A, | =B,2 !>!A,4 ^G,2) | A,8 | %162
w: ten\- * * *||||tur.|
!pp! F,4 F,2 F,2 | F,4 F,2 F,2 | F,4 F,2 F,2 | F,8 | F,8 | D,4 D,4 | z2 D,2 C,2 C,2 | G,4 G,4 | %170
w: Li be- ra|me de san-|gui- ni- bus,|De-|us,|De- us|sa- lu- tis|me- ae,|
 z2!mf! G,2 A,2 =B,2 | C2 G,2 A,2 =B,2 | C4 A,2 A,2 | ^F,4 G,2 G,2 | D,4 G,4 |!pp! G,3 G, G,4 | %176
w: et e- xul-|ta- bit lin- gua|me- a ju-|sti- ti- am|tu- am.|Do- mi- ne,|
 F,4 D,2 D,2 | ^C,4 D,2 D,2 | A,3 A, A,4 | z2!mf! F,4 F,2 | G,2 G,F, E,2 D,2 | ^C,2 C,2 D,4- | %182
w: la- bi- a|me- a a-|pe- ri- es,|et os|me- um an- nun- ti-|a- bit lau\-|
 D,2 G,2 A,4 | D,8 |!p! B,3 B, B,2 B,2 | A,2 A,2 A,2 A,2 | B,2 B,2 B,3 B, | ^F,2 F,2 F,2 F,2 | %188
w: * dem tu-|am.|Quo- ni- am si|vo- lu- is- ses|sa- cr- fi- ci-|um, de- dis- sem|
 G,4 _E,4 | D,4 z4 | G,3 G, G,2 G,2- | G,2 G,2 ^F,2 G,2 | (^F,2 G,2 D,3) D, | G,,8 |!mf! C,4 C4 | %195
w: u- ti-|que,|ho- lo- cau- stis|* non de- le-|cta\- * * be-|ris.|Sa- cri-|
 =B,3 B, B,4 | B,8 | A,8 | _A,3 A, A,4 | z2 G,2 G,2 G,2 | ^F,8 | G,8 |!p! E,6 E,2 | F,4 F,4 | %204
w: fi- ci- um|De-|o|spi- ri- tus|con- tri- bu-|la-|tus,|cor con-|tri- tum|
 D,2 D,2 D,2 D,2 | =B,,4 B,,4 | C,6 C,2 | F,4 C,4 | G,6 G,2 | C,8 | z4 z2!p! F,2 | F,2 !>!F,4 E,2 | %212
w: et hu- mi- li-|a- tum|De- us|non de-|spi- ci-|es.|Be-|ni- gne fac,|
 (F,2 G,2 E,2 F,2 | D,3) D, C,2 C,2 | (D,2 E,2) C,2 F,2 | F,2 !>!F,4 E,2 | (F,2 G,2 E,3) E, | %217
w: Do\- * * *|* mi- ne, be-|ni\- * gne, be-|ni- gne fac,|Do\- * * mi-|
 F,3 F, B,3 B, | B,2 B,2 A,A,F,F, | G,4 C,4 | C3 C A,2 A,2 | B,2 B,2 ^F,4 | G,2 G,2 D,3 D, | %223
w: ne, in bo- na|vo- lun- ta- te tu- a|Si- on,|ut ae- di- fi-|cen- tur mu-|ri Je- ru- sa-|
 G,6 G,2 | G,2 G,2 G,2 G,2 | G,2 G,2 E,3 E, | F,2 F,2 D,3 D, | C,6 C2 | A,4 ^F,4 | %229
w: lem. Tunc|ac- ce- pta- bis|sa- cri- fi- ci-|um ju- sti- ti-|ae, o-|bla- ti-|
 G,2 G,G, E,2 E,2 | (^C,4 D,4) | !fermata!A,,8 | z8 |!f! D,4 D,4 | F,4 F,4 | z2 D,2 D,2 D,2 | %236
w: o- nes et ho- lo-|cau\- *|sta;||tunc im-|po- nent|su- per al-|
 (C,B,,A,,B,, C,D,E,F, | G,4 G,4 | D,4 D,4 | z8 | z8 | z8 | A,4 A,4 | B,4 B,4 | z8 | %245
w: ta\- * * * * * * *|* re|tu- um.||||tunc im-|po- nent||
 z2 G,2 G,2 G,2 | F,E,D,E, F,G,A,B, | C6 B,A, | G,3) F, E,2 F,2 | C,3 C, F,2 A,2 | %250
w: su- per al-|ta\- * * * * * * *||* re tu- um|vi- tu- los, su-|
 A,2 A,2 F,2 F,2 | z2 C2 C2 C2 | B,2 G,2 z4 | z2 D,2 D,2 D,2 | (C,B,,A,,B,, C,D,E,F, | %255
w: per al- ta- re,|su- per al-|ta- re,|su- per al-|ta\- * * * * * * *|
 G,6) (F,E,) | D,4 G,4 | (A,2 D,2 A,,3) A,, | D,2 D2 D2 D2 | (B,2 G,2 ^F,4) | (G,F,) _E,2 E,2 F,2 | %261
w: * re *|tu- um|vi\- * * tu-|los, su- per al-|ta\- * *|re, * su- per al-|
 G,6 F,2 | _E,4 E,2 E,2 | D,4 D,4 | D,4 D,4 | !fermata![G,,G,]8 |] %266
w: ta- re,|su- per al-|ta- re|vi- tu-|los.|

